src/assets/images/homepage/home/partner_logo_10.svg

<svg fill="none" height="89" viewBox="0 0 89 89" width="89" xmlns="http://www.w3.org/2000/svg"><circle cx="44.2225" cy="44.2225" fill="#1e1e1e" r="44.2225"/><g fill="#fff"><path d="m45.2089 62.3921c-14.0712 0-25.476-4.0656-25.476-9.5128 0-2.8424 3.1064-5.4032 8.0784-7.2072 3.8808 2.4904 10.3928 3.7664 17.776 3.7664s13.5784-1.5576 17.4944-3.9424c4.6904 1.7864 7.6032 4.2768 7.6032 7.0224 0 5.456-11.4048 9.8736-25.476 9.8736z"/><path d="m45.3585 48.2156c-10.6656 0-19.316-3.344-19.316-7.4712 0-2.288 2.6664-4.3384 6.8464-5.7024 2.9832 1.5576 7.4536 2.552 12.4696 2.552s9.4864-.9944 12.4696-2.552c4.1888 1.3728 6.8464 3.4144 6.8464 5.7024.0088 4.1272-8.6416 7.4712-19.316 7.4712z"/><path d="m45.2881 36.3532c-8.2456 0-14.9336-2.7632-14.9336-6.16s6.688-6.16 14.9336-6.16 14.9336 2.7632 14.9336 6.16-6.688 6.16-14.9336 6.16z"/></g></svg>

<svg width="89" height="89" viewBox="0 0 89 89" fill="none" xmlns="http://www.w3.org/2000/svg">
<circle cx="44.2225" cy="44.2225" r="44.2225" fill="#1E1E1E"/>
<path d="M45.2089 62.3921C31.1377 62.3921 19.7329 58.3265 19.7329 52.8793C19.7329 50.0369 22.8393 47.4761 27.8113 45.6721C31.6921 48.1625 38.2041 49.4385 45.5873 49.4385C52.9705 49.4385 59.1657 47.8809 63.0817 45.4961C67.7721 47.2825 70.6849 49.7729 70.6849 52.5185C70.6849 57.9745 59.2801 62.3921 45.2089 62.3921Z" fill="white"/>
<path d="M45.3585 48.2156C34.6929 48.2156 26.0425 44.8716 26.0425 40.7444C26.0425 38.4564 28.7089 36.406 32.8889 35.042C35.8721 36.5996 40.3425 37.594 45.3585 37.594C50.3745 37.594 54.8449 36.5996 57.8281 35.042C62.0169 36.4148 64.6745 38.4564 64.6745 40.7444C64.6833 44.8716 56.0329 48.2156 45.3585 48.2156Z" fill="white"/>
<path d="M45.2881 36.3532C37.0425 36.3532 30.3545 33.59 30.3545 30.1932C30.3545 26.7964 37.0425 24.0332 45.2881 24.0332C53.5337 24.0332 60.2217 26.7964 60.2217 30.1932C60.2217 33.59 53.5337 36.3532 45.2881 36.3532Z" fill="white"/>
</svg>
